X:13022
T:Morrison's Jig
T:Stick Across the Hob; Whelan's Fancy
R:Jig
C:Trad.
O:Ireland
Z:Paul Hardy's Session Tunebook 2022 (see www.paulhardy.net). Creative Commons cc by-nc-sa licenced.
M:6/8
L:1/8
Q:3/8=100
K:Edor
"Em"E2E BEB|EBB "D"AFD|"Em"E2E BEB|"D"dcB AFD|
"Em"E2E BEB|EBB "D"AFD|"G"G2G "D"FGA|"G"BAG "D"FED:|
"Em"Bee fee|"Am"aee "D"fed|"Em"Bee fee|"D"a2g fed|
"Em"Bee fee|"Am"aee "D"fef|"Em"gfe "D"d2A|BAG FED||
"Em"Bee fee|"Am"aee "D"fed|"Em"Bee fee|"D"faf def|
"G"g2g gfe|"D"def "G"g2d|"Em"edc "D"d2 A|"G"BAG "D"FED||"_Out""Em"E6|]

